X:1
T:Title
%%score { 1 | 2 }
L:1/8
M:4/4
K:Bb
V:1 treble nm="Grand Piano"
V:2 bass 
V:1
 z4 z2[Q:1/4=100] [B,D]>[CE] | [DF]2 [DG]>[DA] [DB]2 [DA]>[DB] | [EA]4 [EG]2 [EA]>[EB] | %3
 A2 G>A [EG]2 [DF]>[CE] | [B,D]6 [B,D]>[CE] | [DF]2 [DG]>[FA] [FB]2 [FA]>[FB] | %6
 [Fc]4 [FA]2 [FA]>[FB] | [Fc]2 [DGB]>[FA] [FA]2 [=EG]2 | F6 F2 | c2 c>d [Ae]2 [FA]>[EA] | %10
 [DB]4 [Fd]2 F2 | G2 G>A [=EB]2 [Ec]>[Ed] | [Fc]6 [B,D]>[CE] | [DF]2 [DG]>[DA] [DB]2 [DA]>[DB] | %14
 c4 G2 B>G | F2 =E>F d2 c2 | [DB]6 z2 | d2 d2 d d3 | D2 D2 D3 D | G>^F G>A B>A B>c | %20
[M:7/8] d- d3 D3 |[M:1/4] D>[CE] |[M:4/4] [DF]2 [DG]>[DA] [DB]2 [Ec]>[Fd] | [Ge]4 [EG]2 [Gd]>[Gc] | %24
 B2 A>G F2 c2 |[M:3/4] [DB]6 |] %26
V:2
 z4 z2 [B,,F,]>[B,,F,] | [B,,B,]2 [B,,F,]>[B,,F,] [B,,F,]2 [B,,B,]>[B,,B,] | %2
 [C,F,]4 [C,C]2 [C,C]>[C,C] | [F,CF]2 [F,E]>[F,F] [F,,F,]2 [F,,F,]>[F,,F,] | %4
 [B,,F,]6 [B,,F,]>[B,,F,] | [B,,B,]2 [B,,B,]>[B,,B,] [D,B,]2 [D,B,]>[D,B,] | %6
 [C,A,]4 [C,C]2 [C,C]>[C,C] | [C,A,]2 C,>[C,C] [C,C]2 [C,B,]2 | [F,A,C]6 [F,A,]2 | %9
 [F,A,F]2 [F,A,F]>[F,B,F] [F,C]2 [F,C]>[F,C] | [B,,B,]4 [B,,B,]2 [D,B,]2 | %11
 [E,B,E]2 [E,B,E]>[E,B,E] [C,C]2 [C,G,]>[C,G,] | [F,A,]6 [B,,F,]>[B,,F,] | %13
 [B,,B,]2 [B,,B,]>[B,,B,] [B,,F,]2 [B,,B,]>[B,,B,] | [E,G,E]4 [E,B,E]2 [=E,B,_D]>[E,B,D] | %15
 [F,B,D]2 [F,B,_D]>[F,B,=D] [F,A,F]2 [F,E]2 | [B,,F,]6 z2 | D2 D2 D D3 | D,2 D,2 D,3 D, | %19
 G,>^F, G,>A, B,>A, B,>C |[M:7/8] D- D3 D,3 |[M:1/4] [B,,F,B,]>[B,,F,] | %22
[M:4/4] [B,,B,]2 [B,,B,]>[B,,B,] [B,,B,]2 [B,,B,]>[B,,B,] | [E,B,]4 [E,B,]2 [E,E]>[E,E] | %24
 [F,DF]2 [F,CF]>[F,B,E] [F,A,E]2 [F,A,E]2 |[M:3/4] [B,,B,]6 |] %26

